source/_/img/toshi-white.svg

<svg height="199" viewBox="0 0 491 199" width="491" xmlns="http://www.w3.org/2000/svg"><g fill="#fff" fill-rule="evenodd" transform="translate(39 32)"><path d="m67 134c-37.0030782 0-67-29.996922-67-67 0-37.0030782 29.9969218-67 67-67 37.003078 0 67 29.9969218 67 67 0 37.003078-29.996922 67-67 67zm-18-88c-1.6568542 0-3 1.3431458-3 3v36c0 1.6568542 1.3431458 3 3 3h36c1.6568542 0 3-1.3431458 3-3v-36c0-1.6568542-1.3431458-3-3-3z"/><path d="m196.321913 98.8502843h-16.063709v-50.7643715h-18.258204v-13.0448515h52.624007v13.0448515h-18.302094zm40.564732 1.1497157c-15.62481 0-24.885582-9.5957044-24.885582-25.7801642 0-15.9191409 9.524112-25.7359445 24.885582-25.7359445 15.449249 0 24.885581 9.7283639 24.885581 25.7359445 0 16.2286797-9.216882 25.7801642-24.885581 25.7801642zm0-11.9393557c5.705688 0 8.953542-5.0852811 8.953542-13.8408085 0-8.5786482-3.335633-13.7965888-8.953542-13.7965888s-8.953543 5.2179406-8.953543 13.7965888c0 8.7997473 3.247854 13.8408085 8.953543 13.8408085zm31.347849-23.6133922c0 7.7384712 4.784001 12.5584333 14.483672 14.6367656l9.085212 1.9456728c3.906202.8401768 5.35457 1.9456727 5.35457 4.024005 0 2.6531902-2.765065 4.3777638-7.022387 4.3777638-4.564551 0-7.329615-1.636134-8.119634-4.6873026h-14.966461c.877799 9.9052432 8.865763 15.2558433 22.866646 15.2558433 13.649763 0 22.559416-6.5445357 22.559416-16.7593178 0-7.4731522-4.169542-11.4971572-13.781433-13.5312697l-10.094681-2.0783323c-3.862312-.8401769-5.617909-2.0783323-5.617909-4.1566645 0-2.6531902 2.808955-4.4219836 6.846827-4.4219836 4.213432 0 6.802937 1.7245736 7.241836 4.5988629h14.132552c-.570569-9.9052432-7.987964-15.1674037-21.506058-15.1674037-13.166974 0-21.462168 6.1907771-21.462168 15.9633608zm52.327229 34.4030322h15.493139v-27.9027164c0-5.660139 3.160074-9.5072647 8.470754-9.5072647 5.13512 0 7.900184 3.228048 7.900184 9.3303854v28.0795957h15.49314v-31.6171826c0-11.9393556-6.100698-18.5281112-16.722057-18.5281112-7.022386 0-12.464736 3.4491472-14.615342 9.1092862h-.833908v-26.6203411h-15.18591zm56.891779 0h15.53703v-49.2166772h-15.53703zm7.768515-54.921036c5.486239 0 8.777983-2.7858497 8.777983-6.9425143 0-4.2008843-3.291744-6.986734-8.777983-6.986734-5.442349 0-8.734093 2.7858497-8.734093 6.986734 0 4.1566646 3.291744 6.9425143 8.734093 6.9425143z"/></g></svg>

<?xml version="1.0" encoding="UTF-8"?>
<svg width="491px" height="199px" viewBox="0 0 491 199" version="1.1" xmlns="http://www.w3.org/2000/svg" xmlns:xlink="http://www.w3.org/1999/xlink" style="background: #000000;">
    <!-- Generator: Sketch 47.1 (45422) - http://www.bohemiancoding.com/sketch -->
    <title>logotype-white</title>
    <desc>Created with Sketch.</desc>
    <defs></defs>
    <g id="Page-1" stroke="none" stroke-width="1" fill="none" fill-rule="evenodd">
        <g id="logotype-white" fill="#FFFFFF">
            <g id="Group" transform="translate(39.000000, 32.000000)">
                <path d="M67,134 C29.9969218,134 0,104.003078 0,67 C0,29.9969218 29.9969218,-5.68434189e-14 67,-5.68434189e-14 C104.003078,-5.68434189e-14 134,29.9969218 134,67 C134,104.003078 104.003078,134 67,134 Z M49,46 C47.3431458,46 46,47.3431458 46,49 L46,85 C46,86.6568542 47.3431458,88 49,88 L85,88 C86.6568542,88 88,86.6568542 88,85 L88,49 C88,47.3431458 86.6568542,46 85,46 L49,46 Z" id="Combined-Shape"></path>
                <path d="M196.321913,98.8502843 L180.258204,98.8502843 L180.258204,48.0859128 L162,48.0859128 L162,35.0410613 L214.624007,35.0410613 L214.624007,48.0859128 L196.321913,48.0859128 L196.321913,98.8502843 Z M236.886645,100 C221.261835,100 212.001063,90.4042956 212.001063,74.2198358 C212.001063,58.3006949 221.525175,48.4838913 236.886645,48.4838913 C252.335894,48.4838913 261.772226,58.2122552 261.772226,74.2198358 C261.772226,90.4485155 252.555344,100 236.886645,100 Z M236.886645,88.0606443 C242.592333,88.0606443 245.840187,82.9753632 245.840187,74.2198358 C245.840187,65.6411876 242.504554,60.423247 236.886645,60.423247 C231.268736,60.423247 227.933102,65.6411876 227.933102,74.2198358 C227.933102,83.0195831 231.180956,88.0606443 236.886645,88.0606443 Z M268.234494,64.4472521 C268.234494,72.1857233 273.018495,77.0056854 282.718166,79.0840177 L291.803378,81.0296905 C295.70958,81.8698673 297.157948,82.9753632 297.157948,85.0536955 C297.157948,87.7068857 294.392883,89.4314593 290.135561,89.4314593 C285.57101,89.4314593 282.805946,87.7953253 282.015927,84.7441567 L267.049466,84.7441567 C267.927265,94.6493999 275.915229,100 289.916112,100 C303.565875,100 312.475528,93.4554643 312.475528,83.2406822 C312.475528,75.76753 308.305986,71.743525 298.694095,69.7094125 L288.599414,67.6310802 C284.737102,66.7909033 282.981505,65.5527479 282.981505,63.4744157 C282.981505,60.8212255 285.79046,59.0524321 289.828332,59.0524321 C294.041764,59.0524321 296.631269,60.7770057 297.070168,63.651295 L311.20272,63.651295 C310.632151,53.7460518 303.214756,48.4838913 289.696662,48.4838913 C276.529688,48.4838913 268.234494,54.6746684 268.234494,64.4472521 Z M320.561723,98.8502843 L336.054862,98.8502843 L336.054862,70.9475679 C336.054862,65.2874289 339.214936,61.4403032 344.525616,61.4403032 C349.660736,61.4403032 352.4258,64.6683512 352.4258,70.7706886 L352.4258,98.8502843 L367.91894,98.8502843 L367.91894,67.2331017 C367.91894,55.2937461 361.818242,48.7049905 351.196883,48.7049905 C344.174497,48.7049905 338.732147,52.1541377 336.581541,57.8142767 L335.747633,57.8142767 L335.747633,31.1939356 L320.561723,31.1939356 L320.561723,98.8502843 Z M377.453502,98.8502843 L392.990532,98.8502843 L392.990532,49.6336071 L377.453502,49.6336071 L377.453502,98.8502843 Z M385.222017,43.9292483 C390.708256,43.9292483 394,41.1433986 394,36.986734 C394,32.7858497 390.708256,30 385.222017,30 C379.779668,30 376.487924,32.7858497 376.487924,36.986734 C376.487924,41.1433986 379.779668,43.9292483 385.222017,43.9292483 Z" id="Toshi"></path>
            </g>
        </g>
    </g>
</svg>
